X:1
T:Trio No. 1, Op. 39
T:Moderato
T:Trios No.1 & 2
T:from "12 Organ Trios" Op. 39, arr. for Flute, Violin and Cello
T:Josef Renner jun. (1868-1934)
T:Arrangement by Felix Scharpf
T:Organ of the Regensburg Cathedral, where Josef Renner was organist
T:twoflutes 2019 / Felix Scharpf / https://commons.wikimedia.org/wiki/File:Regensburger_Dom_22.JPG
T:twoflutes 2019 / Felix Scharpf / https://commons.wikimedia.org/wiki/File:Regensburger_Dom_22.JPG
T:twoflutes 2019 / Felix Scharpf / https://commons.wikimedia.org/wiki/File:Regensburger_Dom_22.JPG
C:Josef Renner jun. (1868-1934)
Z:twoflutes 2019 / Felix Scharpf / https://commons.wikimedia.org/wiki/File:Regensburger_Dom_22.JPG
%%score [ 1 2 3 ]
L:1/8
Q:1/4=100
M:4/4
K:G
V:1 treble nm="Flute" snm="Fl."
V:2 treble nm="Violin" snm="Vl."
V:3 bass nm="Cello" snm="Vc."
V:1
!mp!"^Trio I Moderato" (((B6 d2- | d2 c2 B2 A2 | B2 d2 g2 f2 | e8- | e2))) (^de a2 g2 | f6) (a2- | %6
 a2 g2 f2 e2 | f2) (c'2 b2 a2 | b2) (f2 b2 a2 | g6) (b2- | b2 a2 g2 f2 | g2) (^g2 a2 b2 | %12
 c'4 ^c'4) | (e'2 d'4) (f2 | g4 ^g4 | a2) (c'b a2 g2 | f3 e d2 c2 |!mf! (B6) d2- | d2 c2 B2 A2 | %19
 B2 d2 g2 f2 | e4 ^d4 | d2) (G2 F2 =F2 | E6)!mp! (F2 | G2 F2 G2 A2 | B2 A2 B2 c2 | %25
!p! F8[Q:1/4=80]"_rit."[Q:1/4=70][Q:1/4=60] |!pp! G8) |][K:C]"^Trio II Allegretto"[Q:1/4=120] z8 | %28
 z8 | z2!mp! a2 (d2 e2 | f2) d2 (d'3 _b | b8- | b2)!p!"_cresc." (d'2 _b2 =b2 | c'8- | c'8- | c'8- | %36
 c'3)!mp! (^c' d'2 a2 | b6) (ab | c'3 b a2 g2 | ^f6)"_cresc." (ef | g6 e2 | f2 ^c2 d3 =c | %42
 B2) g2 (B2 ^c2 | d2) (ae f2 ^f2 | g2) (f'^g a2 b2 | c'4) z2!mf! e2 | (G2 A2 _B2 c2 | %47
 A4) z2!mp! (f2 | A2 B2 c2 dB | c8) | (_B8 | A8) |!p! (^G8[Q:1/4=90]"_rit."[Q:1/4=80][Q:1/4=60] | %53
 G8) |] %54
V:2
 z2!mp! (G2 F2 =F2 | E4 ^D4 | D2 C2 B,2 D2- | D2) (G,2 C2 B,2 | A,4) E4- | E2 D2 (d2 c2 | B4 _B4 | %7
 A4 G2 F2- | F2) (c2 B2 f2- | f2 e2 ^d2 =d2 | ^c4 =c4 | B2) (d2 c2 ^G2 | A2 G2 F2 E2 | F4) (c4 | %14
 B2 =F2 E2 d2 | c2) (A,B, C2 ^C2 | D2 E2 =F2 ^F2 | G2) (D2 G2 F2 | E4 ^D4 | D2) (B,4 D2- | %20
 D2 C2 B,2 A,2 | B,6)!mp! (D2- | D2 G,2 C2 D2 | E4 ^D4- | D8- | D2)!p! (A,2 =D2 C2 | B,8) |] %27
[K:C] z2!mp! c2 (E2 F2 | G2) C2 (c2 ^G2 | A8- | A3 G F2 ^F2 | G2) d2!p!"_cresc." (D2 E2 | F8) | %33
 E2 c2 (E2 F2 | G2) C2 (c2 ^G2 | A2) (_e2 d2 ^c2 | d2)!mp! A2 a2 d2- | d2 (a2 g2 f2 | e2 d2 c4- | %39
 c2) (e2 d2 c2 | B2 G2) (B,2 ^C2 | D2 E2 F2 ^F2 | G6)"_cresc." (E2 | F2 ^C2 D3) (=C | %44
 B,CDE F3 E/D/ | E2) E2!mf! (G,2 A,2 | _B,2 C2 D2 _E=E | F2) F2!mp! (A,2 B,2 | C2 D2 E2 F2 | %49
 E2) c2 (E2 F2 | G2) (g2 d2 e2 | f2) F2 (C2 DE | F2)!p! (f2 c2 d2 | e8) |] %54
V:3
!p! G,8- | G,8- | G,8 | C,8 | ^C,8 | D,8- | D,8- | D,8 | ^D,8 | E,8- | E,8- | E,8 | A,8 | D,8- | %14
 D,8- | D,8- | D,8 | G,8- | G,8- | G,8- | G,8- | G,8 |!mp! C,8- | C,8 | (B,,4 A,,4) |!p! D,8 | %26
!pp! G,,8 |][K:C]!mp! C8 | E,8 | F,8 | D,8 | G,8 |!p!"_cresc." ^G,8 | A,8 | E,8 | F,8 | ^F,8 | %37
!mp! G,8 | A,8 | D,8 | G,8- | G,8- | G,8- | G,8 | G,,8 | C,8- | C,8- | C,8- | C,8 |!p! C8- | C8- | %51
 C8- | C4 F,4 | C,8 |] %54

